Adwaita++-Dark/devices/16/drive-removable-media-usb.svg

<svg fill="none" height="16" viewBox="0 0 16 16" width="16" xmlns="http://www.w3.org/2000/svg">
  <path clip-rule="evenodd" d="m2 2c0-.55228.48842-1 1.09091-1h9.81819c.6025 0 1.0909.44772 1.0909 1v12c0 .5523-.4884 1-1.0909 1h-9.81819c-.60249 0-1.09091-.4477-1.09091-1zm4.40479 2 3.33155-.00213v-.20198-.0209c.00043-.03898-.01293-.07751-.04164-.11141l-1.33263-1.5593c-.05727-.0692-.1744-.10435-.29151-.10428-.11713.00007-.23424.03538-.29151.10464l-1.33261 1.56102c-.02872.03394-.04198.07248-.04165.11146v.0209zm1.09521 0h1v4.71256l1.45612-.73187c.33528-.16853.54798-.51059.55088-.88585l.0007-.09484h-.2077c-.1657 0-.3-.13431-.3-.3v-1.4c0-.16569.1343-.3.3-.3h1.4c.1657 0 .3.13431.3.3v1.4c0 .16569-.1343.3-.3.3h-.1922l-.0032.40813c-.0043.56289-.3233 1.07599-.8263 1.32878l-2.1783 1.09486v2.30203c.2989.1729.5.4961.5.8662 0 .5523-.44772 1-1 1s-1-.4477-1-1c0-.3701.2011-.6933.5-.8662v-.8254l-2.33501-1.56471c-.41559-.27849-.66499-.74583-.66499-1.2461v-.63137c-.2989-.17291-.5-.49608-.5-.86622 0-.55228.44772-1 1-1s1 .44772 1 1c0 .37014-.2011.69331-.5.86622v.36454c0 .33352.16627.64508.44332.83073l1.55668 1.04311z" fill="#e6ddff" fill-rule="evenodd"/>
</svg>

<svg xmlns="http://www.w3.org/2000/svg" fill="none" width="16" height="16" viewBox="0 0 16 16">
 <path fill="#E6DDFF" fill-rule="evenodd" d="M2 2C2 1.44772 2.48842 1 3.09091 1H12.9091C13.5116 1 14 1.44772 14 2V14C14 14.5523 13.5116 15 12.9091 15H3.09091C2.48842 15 2 14.5523 2 14V2ZM6.40479 4L9.73634 3.99787V3.79589V3.77499C9.73677 3.73601 9.72341 3.69748 9.6947 3.66358L8.36207 2.10428C8.3048 2.03508 8.18767 1.99993 8.07056 2C7.95343 2.00007 7.83632 2.03538 7.77905 2.10464L6.44644 3.66566C6.41772 3.6996 6.40446 3.73814 6.40479 3.77712V3.79802V4ZM7.5 4H8.5V8.71256L9.95612 7.98069C10.2914 7.81216 10.5041 7.4701 10.507 7.09484L10.5077 7H10.3C10.1343 7 10 6.86569 10 6.7V5.3C10 5.13431 10.1343 5 10.3 5H11.7C11.8657 5 12 5.13431 12 5.3V6.7C12 6.86569 11.8657 7 11.7 7H11.5078L11.5046 7.40813C11.5003 7.97102 11.1813 8.48412 10.6783 8.73691L8.5 9.83177V12.1338C8.7989 12.3067 9 12.6299 9 13C9 13.5523 8.55228 14 8 14C7.44772 14 7 13.5523 7 13C7 12.6299 7.2011 12.3067 7.5 12.1338V11.3084L5.16499 9.74369C4.7494 9.4652 4.5 8.99786 4.5 8.49759V7.86622C4.2011 7.69331 4 7.37014 4 7C4 6.44772 4.44772 6 5 6C5.55228 6 6 6.44772 6 7C6 7.37014 5.7989 7.69331 5.5 7.86622V8.23076C5.5 8.56428 5.66627 8.87584 5.94332 9.06149L7.5 10.1046V4Z" clip-rule="evenodd"/>
</svg>
